dist/images/src/logo-decos.svg

<svg width="149" height="22" viewBox="0 0 149 22" fill="none" xmlns="http://www.w3.org/2000/svg">
<path fill-rule="evenodd" clip-rule="evenodd" d="M22.7072 0.000274843H0.0642135C-0.265786 1.32027 0.724213 2.42027 1.93321 2.42027H22.5972C25.3452 2.42027 27.5432 5.06028 26.8842 7.92027C26.3342 10.0103 24.7952 16.2803 24.7952 16.2803C24.3552 18.2603 22.5972 19.5803 20.5082 19.5803H3.69121C2.92221 19.5803 2.26221 18.9203 2.48221 18.0403C3.03221 15.9503 4.57121 9.79027 4.57121 9.79027C4.90121 8.58027 3.91121 7.37027 2.70221 7.37027C2.70221 7.37027 0.834214 14.8503 0.174214 17.3803C-0.485786 19.8003 1.27421 22.0003 3.69121 22.0003H20.6182C23.6962 22.0003 26.4442 19.8003 27.2132 16.8303C27.2132 16.8303 28.7532 10.5603 29.3022 8.47027C30.5102 3.85028 26.8842 0.000274843 22.7072 0.000274843ZM53.3732 19.5803C52.9332 21.6703 52.3842 22.0003 51.2852 22.0003H30.7302C30.4456 22.0096 30.1642 21.937 29.9196 21.7913C29.6749 21.6455 29.4772 21.4327 29.3498 21.178C29.2225 20.9232 29.1708 20.6373 29.201 20.3542C29.2312 20.071 29.342 19.8024 29.5202 19.5803H53.3722H53.3732ZM87.5572 0.000274843C87.1172 2.09027 86.5672 2.42027 85.4692 2.42027H68.4322C66.4532 2.42027 64.6952 3.74027 64.1452 5.72027C63.5952 7.81027 62.6062 11.9903 62.0572 14.0803C61.2872 17.0503 63.5952 19.5803 66.3432 19.5803H82.6112C82.9081 19.5754 83.2019 19.6399 83.4695 19.7686C83.737 19.8973 83.9708 20.0868 84.1522 20.3218C84.3336 20.5568 84.4576 20.8309 84.5144 21.1223C84.5712 21.4137 84.5591 21.7143 84.4792 22.0003H66.3432C61.7272 22.0003 58.6492 17.8203 59.7482 13.5303C60.1882 11.4403 61.2882 7.37027 61.8372 5.17027C62.4972 2.09027 65.2442 0.000274843 68.4322 0.000274843H87.5572ZM110.639 0.000274843H97.7802C94.7032 0.000274843 91.9552 2.20027 91.1852 5.17027C90.6352 7.26027 89.6462 11.3303 89.0972 13.5303C88.1072 17.8203 91.1852 22.0003 95.6922 22.0003H108.552C111.63 22.0003 114.378 19.8003 115.147 16.8303C115.697 14.7403 116.686 10.6703 117.235 8.47027C118.335 4.18027 115.257 0.000274843 110.64 0.000274843H110.639ZM114.926 7.92027C114.376 10.0103 113.387 14.0803 112.838 16.2803C112.398 18.2603 110.639 19.5803 108.551 19.5803H95.6912C93.0532 19.5803 90.6352 17.0503 91.4042 14.0803C91.9542 11.9903 92.9432 7.81027 93.4932 5.72027C94.0432 3.63027 95.9112 2.42027 97.6692 2.42027H110.639C113.387 2.42027 115.696 4.95027 114.926 7.92027ZM55.7912 9.79027L55.1322 12.2103H35.0172L36.8862 9.79027H55.7902H55.7912ZM42.3812 2.42027C43.4822 0.990275 44.0322 0.000274843 45.6802 0.000274843H55.7922C56.0891 -0.00476651 56.3831 0.0596082 56.6508 0.18827C56.9184 0.316932 57.1523 0.506325 57.3339 0.74136C57.5154 0.976395 57.6395 1.25058 57.6963 1.54206C57.7532 1.83354 57.7411 2.13426 57.6612 2.42027H42.3822H42.3812ZM126.467 2.42027C125.917 2.42027 125.368 2.86027 125.258 3.30027C125.258 3.30027 124.378 6.93027 124.049 8.14028C123.829 9.02028 124.489 9.68027 125.259 9.68027H141.965C144.384 9.68027 146.142 11.8803 145.483 14.1903C145.153 15.4003 144.603 17.8203 144.273 19.0303C143.943 20.3503 142.735 21.7803 140.756 21.7803H118.004C118.444 19.6903 118.993 19.3603 120.092 19.3603H140.756C141.306 19.3603 141.746 18.9203 141.966 18.4803C141.966 18.4803 142.845 14.8503 143.174 13.6403C143.394 12.8703 142.734 12.1003 141.965 12.1003H125.258C122.62 12.1003 121.081 9.79027 121.631 7.59027C121.961 6.38027 122.511 3.96027 122.841 2.75027C123.28 0.990275 124.818 0.000274843 126.356 0.000274843H149C148.56 2.09027 148.01 2.42027 146.912 2.42027H126.467Z" fill="#B2B2B2"/>
</svg>

<svg width="149" height="22" fill="none" xmlns="http://www.w3.org/2000/svg"><path fill-rule="evenodd" clip-rule="evenodd" d="M22.707 0H.064c-.33 1.32.66 2.42 1.87 2.42h20.663c2.748 0 4.946 2.64 4.287 5.5-.55 2.09-2.089 8.36-2.089 8.36-.44 1.98-2.198 3.3-4.287 3.3H3.691c-.769 0-1.429-.66-1.209-1.54.55-2.09 2.09-8.25 2.09-8.25.33-1.21-.66-2.42-1.87-2.42 0 0-1.868 7.48-2.528 10.01-.66 2.42 1.1 4.62 3.517 4.62h16.927c3.078 0 5.826-2.2 6.595-5.17 0 0 1.54-6.27 2.09-8.36C30.51 3.85 26.883 0 22.706 0zm30.666 19.58c-.44 2.09-.989 2.42-2.088 2.42H30.73a1.49 1.49 0 01-1.21-2.42h23.853zM87.557 0c-.44 2.09-.99 2.42-2.088 2.42H68.432c-1.979 0-3.737 1.32-4.287 3.3-.55 2.09-1.539 6.27-2.088 8.36-.77 2.97 1.538 5.5 4.286 5.5h16.268A1.907 1.907 0 0184.48 22H66.343c-4.616 0-7.694-4.18-6.595-8.47.44-2.09 1.54-6.16 2.09-8.36.66-3.08 3.406-5.17 6.594-5.17h19.125zm23.082 0H97.78c-3.077 0-5.825 2.2-6.595 5.17-.55 2.09-1.539 6.16-2.088 8.36-.99 4.29 2.088 8.47 6.595 8.47h12.86c3.078 0 5.826-2.2 6.595-5.17.55-2.09 1.539-6.16 2.088-8.36 1.1-4.29-1.978-8.47-6.595-8.47h-.001zm4.287 7.92c-.55 2.09-1.539 6.16-2.088 8.36-.44 1.98-2.199 3.3-4.287 3.3h-12.86c-2.638 0-5.056-2.53-4.287-5.5.55-2.09 1.54-6.27 2.09-8.36.55-2.09 2.417-3.3 4.175-3.3h12.97c2.748 0 5.057 2.53 4.287 5.5zM55.791 9.79l-.659 2.42H35.017l1.87-2.42H55.79zm-13.41-7.37C43.482.99 44.032 0 45.681 0h10.111a1.907 1.907 0 011.87 2.42h-15.28zm84.086 0c-.55 0-1.099.44-1.209.88 0 0-.88 3.63-1.209 4.84-.22.88.44 1.54 1.21 1.54h16.706c2.419 0 4.177 2.2 3.518 4.51-.33 1.21-.88 3.63-1.21 4.84-.33 1.32-1.538 2.75-3.517 2.75h-22.752c.44-2.09.989-2.42 2.088-2.42h20.664c.55 0 .99-.44 1.21-.88 0 0 .879-3.63 1.208-4.84.22-.77-.44-1.54-1.209-1.54h-16.707c-2.638 0-4.177-2.31-3.627-4.51.33-1.21.88-3.63 1.21-4.84C123.28.99 124.818 0 126.356 0H149c-.44 2.09-.99 2.42-2.088 2.42h-20.445z" fill="#B2B2B2"/></svg>
